RestoDelMundo/Paises Bajos/Otras Categorias/Excelsior Maassluis.svg

<svg xmlns="http://www.w3.org/2000/svg" viewBox="0 0 612 792"><path fill="#26387c" d="M35.557 536.158h105.618l250.951-95.48v94.638h45.625l107.308-76.892v76.892H589V387.451l-152.937 106.46V384.915zM40.772 511.304l-.219-17.169 26.205-9.991-.162-12.882-26.202 9.99-.174-13.73 27.214-10.377-.166-12.881-44.881 17.107.878 69.553 44.879-17.112-.165-12.879ZM149.217 412.69l-21.277 8.12-11.757 25.248-13.366-15.669-20.755 7.917.654.665 22.81 23.137-27.147 47.486 21.068-8.031 15.528-30.572 17.015 18.159 20.413-7.783-26.774-26.551Z"/><path fill="#26387c" d="M211.337 439.804c-4.46 5.918-11.421 11.541-18.335 14.18-3.508 1.334-6.688 1.932-9.497 1.932-9.243-.033-14.568-6.364-14.719-14.934q-.002-.139-.002-.275c-.015-11.437 8.76-26.301 24.178-32.163 3.392-1.298 6.758-1.938 9.828-1.938 3.196 0 6.063.695 8.322 2.044l.931.558-.012-1.087-.209-16.493-.563-.038a37 37 0 0 0-2.304-.072c-5.246 0-10.998 1.085-16.813 3.302-24.791 9.464-41.564 32.874-41.588 52.505l.002.434c.143 14.273 10.363 23.639 25.364 23.639h.104c5.198 0 10.969-1.094 17.122-3.44 6.912-2.635 13.102-6.743 19.25-11.456l.243-.188-.234-17.926zM243.509 433.988l-.22-17.174 26.205-9.992-.164-12.881-26.198 9.99-.177-13.726 27.209-10.38-.157-12.889-44.883 17.122.876 69.55 44.878-17.113-.161-12.879ZM301.827 411.748l-.715-56.677-17.668 6.74.875 69.557 40.961-15.622-.159-12.881ZM381.352 359.311c-3.199-1.883-7.317-2.263-11.433-2.267-3.285 0-6.578.253-9.384.253-2.325.004-4.314-.183-5.625-.758-1.302-.598-1.954-1.381-2.004-3.027v-.031l-.004-.031.002-.002c-.061-3.979 4.753-9.088 9.815-10.976 2.251-.862 4.229-1.242 5.986-1.242 2.419.002 4.417.714 6.169 1.95l.525.372.343-.546 7.959-12.741-.592-.303c-2.248-1.14-5.284-1.614-8.619-1.616-4.917.002-10.483 1.051-15.033 2.785-14.321 5.476-24.743 18.555-24.774 30.183q0 .131.004.241c.046 4.828 1.768 8 4.686 9.82 2.903 1.817 6.849 2.344 11.421 2.348 1.154 0 2.349-.035 3.578-.093 2.062-.135 4.229-.328 6.235-.328 2.253-.004 4.288.255 5.675 1.028 1.377.783 2.209 1.96 2.264 4.246-.005.033-.003.083-.003.117.017 4.913-3.901 10.872-10.345 13.318-1.971.75-3.837 1.082-5.546 1.082-4.24-.004-7.521-2.035-9.054-4.95l-.421-.802-11.48 13.605.415.396c3.839 3.672 8.829 5.939 14.961 5.935 3.553 0 7.487-.753 11.816-2.4 17.284-6.602 27.866-20.315 27.875-34.201v-.326c-.053-5.698-2.201-9.16-5.412-11.039M414.93 311.791l-17.67 6.738.875 69.557 17.67-6.743-.006-.424ZM485.137 286.348c-5.3 0-11.234 1.136-17.64 3.578-24.686 9.434-41.685 32.574-41.714 51.948q.002.212.004.405c.14 14.721 10.025 24.278 25.159 24.278h.11c5.334 0 11.316-1.155 17.776-3.617 24.667-9.431 41.686-32.302 41.712-52.112l-.002-.417c-.148-14.476-10.134-24.11-25.405-24.063m-41.724 48.887.606-.03q-.005-.082-.004-.204c-.034-10.675 9.977-25.469 24.08-30.812 3.347-1.279 6.46-1.855 9.259-1.855 9.041.032 14.811 5.907 14.941 14.034-.002.057 0 .125 0 .184.049 9.985-10.44 26.98-24.062 32.125-2.807 1.069-5.471 1.545-7.933 1.545-9.551-.004-16.179-7.132-16.282-14.995zm-17.016 7.035zM580.432 318.562l-.817-.665-23.501-19.117c10.846-5.999 16.51-16.659 16.52-25.36q0-.121-.002-.249c-.038-9.561-5.313-14.023-13.358-13.94-4.507.002-9.904 1.288-15.943 3.587l-22.684 8.651.876 69.55 17.676-6.736-.338-26.799 20.301 19.192zm-25.475-38.735c-.004.062-.002.138-.002.204.004 7.805-5.974 12.177-14.929 15.611l-1.31.5-.241-19.251 1.838-.701c3.685-1.412 6.982-2.361 9.448-2.361h.017c3.283.092 5.02 1.35 5.179 5.998"/><path fill="#e41f28" d="m39.607 467.105.191 15.028 26.201-9.989.146 11.585-26.205 9.989.237 18.467 27.205-10.374.148 11.585-43.666 16.651L23 461.791l43.673-16.646.148 11.585ZM83.15 438.544l19.485-7.433 13.7 16.064 12.053-25.882 19.479-7.433-22.994 41.066 26.432 26.212-19.149 7.3-17.331-18.495-15.812 31.135-19.259 7.344 26.531-46.411ZM211.425 408.129c-4.653-2.778-11.626-2.844-18.679-.154-15.79 6.023-24.713 21.25-24.567 33.017.148 11.497 9.701 19.402 25.041 13.561 7.052-2.696 14.071-8.373 18.604-14.38l.204 15.849c-6.128 4.697-12.27 8.769-19.097 11.37-23.736 9.055-41.526-.809-41.764-19.639-.247-19.374 16.442-42.93 41.194-52.363 6.604-2.52 13.12-3.554 18.86-3.191zM242.343 389.789l.192 15.023 26.199-9.99.146 11.585-26.204 9.99.236 18.472 27.208-10.375.146 11.585L226.6 452.73l-.862-68.255 43.672-16.658.141 11.591ZM301.23 412.629l23.295-8.885.143 11.585-39.75 15.161-.861-68.261 16.459-6.277ZM375.227 342.684c-3.174-2.244-7.233-2.877-12.724-.781-5.265 2.003-10.26 7.179-10.204 11.618.148 11.497 33.566-6.073 33.858 16.833.165 13.67-10.237 27.367-27.483 33.952-11.64 4.434-20.222 2.25-26.141-3.405l10.529-12.476c2.311 4.401 8.295 6.843 15.353 4.153 6.723-2.563 10.805-8.763 10.738-14.011-.094-7.063-8.175-5.979-14.809-5.545-10.908.522-18.907-.88-19.05-11.475-.143-11.315 10.16-24.43 24.38-29.848 7.504-2.86 17.95-3.845 23.159-1.194zM415.192 380.926l-16.459 6.282-.858-68.261 16.459-6.277ZM443.412 335.235c.132 10.32 11.046 19.353 25.04 14.011 13.995-5.341 24.584-22.565 24.452-32.885-.138-11.04-10.584-18.252-25.024-12.74-14.445 5.507-24.611 20.569-24.468 31.614m-17.015 7.036c-.236-19.099 16.679-42.379 41.317-51.775 24.634-9.396 41.973.819 42.221 19.919.241 19.556-16.684 42.561-41.318 51.957-24.633 9.395-41.972-.545-42.22-20.101M538.122 297.02l2.123-.809c9.071-3.46 15.431-8.064 15.32-16.393-.109-8.422-6.733-7.531-15.469-4.197l-2.233.853zm41.108 21.349-19.93 7.603-20.843-19.705-.221.082.347 27.516-16.464 6.276-.858-68.256 22.284-8.499c16.685-6.359 28.292-4.78 28.479 9.792.11 8.692-5.716 19.649-17.003 25.497z"/></svg>

<svg enable-background="new 0 0 612 792" viewBox="0 0 612 792" xmlns="http://www.w3.org/2000/svg"><path d="M 35.557 536.158 L 141.175 536.158 L 392.126 440.678 L 392.126 535.316 L 437.751 535.316 L 545.059 458.424 L 545.059 535.316 L 589 535.316 L 589 387.451 L 436.063 493.911 L 436.063 384.915 L 35.557 536.158" fill="#26387c"/><path d="M 40.772 511.304 L 40.553 494.135 L 66.758 484.144 L 66.596 471.262 L 40.394 481.252 L 40.22 467.522 L 67.434 457.145 L 67.268 444.264 L 22.387 461.371 L 23.265 530.924 L 68.144 513.812 L 67.979 500.933 Z" fill="#26387c"/><path d="M 149.217 412.69 L 127.94 420.81 L 116.183 446.058 L 102.817 430.389 L 82.062 438.306 L 82.716 438.971 L 105.526 462.108 L 78.379 509.594 L 99.447 501.563 L 114.975 470.991 L 131.99 489.15 L 152.403 481.367 L 125.629 454.816 Z" fill="#26387c"/><path d="M 211.337 439.804 c -4.46 5.918 -11.421 11.541 -18.335 14.18 c -3.508 1.334 -6.688 1.932 -9.497 1.932 c -9.243 -.033 -14.568 -6.364 -14.719 -14.934 c -.002 -.094 -.002 -.183 -.002 -.275 c -.015 -11.437 8.76 -26.301 24.178 -32.163 c 3.392 -1.298 6.758 -1.938 9.828 -1.938 c 3.196 0 6.063 .695 8.322 2.044 l .931 .558 l -.012 -1.087 l -.209 -16.493 l -.563 -.038 c -.757 -.047 -1.525 -.072 -2.304 -.072 c -5.246 0 -10.998 1.085 -16.813 3.302 c -24.791 9.464 -41.564 32.874 -41.588 52.505 c 0 .147 .002 .292 .002 .434 c .143 14.273 10.363 23.639 25.364 23.639 c .035 0 .07 0 .104 0 c 5.198 0 10.969 -1.094 17.122 -3.44 c 6.912 -2.635 13.102 -6.743 19.25 -11.456 l .243 -.188 l -.234 -17.926 L 211.337 439.804 z" fill="#26387c"/><path d="M 243.509 433.988 L 243.289 416.814 L 269.494 406.822 L 269.33 393.941 L 243.132 403.931 L 242.955 390.205 L 270.164 379.825 L 270.007 366.936 L 225.124 384.058 L 226 453.608 L 270.878 436.495 L 270.717 423.616 Z" fill="#26387c"/><path d="M 301.827 411.748 L 301.112 355.071 L 283.444 361.811 L 284.319 431.368 L 325.28 415.746 L 325.121 402.865 Z" fill="#26387c"/><path d="M 381.352 359.311 c -3.199 -1.883 -7.317 -2.263 -11.433 -2.267 c -3.285 0 -6.578 .253 -9.384 .253 c -2.325 .004 -4.314 -.183 -5.625 -.758 c -1.302 -.598 -1.954 -1.381 -2.004 -3.027 v -.031 l -.004 -.031 l .002 -.002 c -.061 -3.979 4.753 -9.088 9.815 -10.976 c 2.251 -.862 4.229 -1.242 5.986 -1.242 c 2.419 .002 4.417 .714 6.169 1.95 l .525 .372 l .343 -.546 l 7.959 -12.741 l -.592 -.303 c -2.248 -1.14 -5.284 -1.614 -8.619 -1.616 c -4.917 .002 -10.483 1.051 -15.033 2.785 c -14.321 5.476 -24.743 18.555 -24.774 30.183 c 0 .087 .002 .168 .004 .241 c .046 4.828 1.768 8 4.686 9.82 c 2.903 1.817 6.849 2.344 11.421 2.348 c 1.154 0 2.349 -.035 3.578 -.093 c 2.062 -.135 4.229 -.328 6.235 -.328 c 2.253 -.004 4.288 .255 5.675 1.028 c 1.377 .783 2.209 1.96 2.264 4.246 c -.005 .033 -.003 .083 -.003 .117 c .017 4.913 -3.901 10.872 -10.345 13.318 c -1.971 .75 -3.837 1.082 -5.546 1.082 c -4.24 -.004 -7.521 -2.035 -9.054 -4.95 l -.421 -.802 l -11.48 13.605 l .415 .396 c 3.839 3.672 8.829 5.939 14.961 5.935 c 3.553 0 7.487 -.753 11.816 -2.4 c 17.284 -6.602 27.866 -20.315 27.875 -34.201 c 0 -.108 0 -.216 0 -.326 C 386.711 364.652 384.563 361.19 381.352 359.311 z" fill="#26387c"/><path d="M 414.93 311.791 L 397.26 318.529 L 398.135 388.086 L 415.805 381.343 L 415.799 380.919 Z" fill="#26387c"/><path d="M 485.137 286.348 c -5.3 0 -11.234 1.136 -17.64 3.578 c -24.686 9.434 -41.685 32.574 -41.714 51.948 c 0 .141 .004 .276 .004 .405 c .14 14.721 10.025 24.278 25.159 24.278 c .037 0 .073 0 .11 0 c 5.334 0 11.316 -1.155 17.776 -3.617 c 24.667 -9.431 41.686 -32.302 41.712 -52.112 c 0 -.141 -.002 -.28 -.002 -.417 C 510.394 295.935 500.408 286.301 485.137 286.348 z M 443.413 335.235 l .606 -.03 c -.004 -.055 -.004 -.122 -.004 -.204 c -.034 -10.675 9.977 -25.469 24.08 -30.812 c 3.347 -1.279 6.46 -1.855 9.259 -1.855 c 9.041 .032 14.811 5.907 14.941 14.034 c -.002 .057 0 .125 0 .184 c .049 9.985 -10.44 26.98 -24.062 32.125 c -2.807 1.069 -5.471 1.545 -7.933 1.545 c -9.551 -.004 -16.179 -7.132 -16.282 -14.995 L 443.413 335.235 z M 426.397 342.27 L 426.397 342.27 h -.001 H 426.397 z" fill="#26387c"/><path d="M 580.432 318.562 l -.817 -.665 l -23.501 -19.117 c 10.846 -5.999 16.51 -16.659 16.52 -25.36 c 0 -.081 0 -.164 -.002 -.249 c -.038 -9.561 -5.313 -14.023 -13.358 -13.94 c -4.507 .002 -9.904 1.288 -15.943 3.587 l -22.684 8.651 l .876 69.55 l 17.676 -6.736 l -.338 -26.799 l 20.301 19.192 L 580.432 318.562 z M 554.957 279.827 c -.004 .062 -.002 .138 -.002 .204 c .004 7.805 -5.974 12.177 -14.929 15.611 l -1.31 .5 l -.241 -19.251 l 1.838 -.701 c 3.685 -1.412 6.982 -2.361 9.448 -2.361 c .006 0 .011 0 .017 0 C 553.061 273.921 554.798 275.179 554.957 279.827 z" fill="#26387c"/><path d="M 39.607 467.105 L 39.798 482.133 L 65.999 472.144 L 66.145 483.729 L 39.94 493.718 L 40.177 512.185 L 67.382 501.811 L 67.53 513.396 L 23.864 530.047 L 23 461.791 L 66.673 445.145 L 66.821 456.73 Z" fill="#e41f28"/><path d="M 83.15 438.544 L 102.635 431.111 L 116.335 447.175 L 128.388 421.293 L 147.867 413.86 L 124.873 454.926 L 151.305 481.138 L 132.156 488.438 L 114.825 469.943 L 99.013 501.078 L 79.754 508.422 L 106.285 462.011 Z" fill="#e41f28"/><path d="M 211.425 408.129 c -4.653 -2.778 -11.626 -2.844 -18.679 -.154 c -15.79 6.023 -24.713 21.25 -24.567 33.017 c .148 11.497 9.701 19.402 25.041 13.561 c 7.052 -2.696 14.071 -8.373 18.604 -14.38 l .204 15.849 c -6.128 4.697 -12.27 8.769 -19.097 11.37 c -23.736 9.055 -41.526 -.809 -41.764 -19.639 c -.247 -19.374 16.442 -42.93 41.194 -52.363 c 6.604 -2.52 13.12 -3.554 18.86 -3.191 L 211.425 408.129 z" fill="#e41f28"/><path d="M 242.343 389.789 L 242.535 404.812 L 268.734 394.822 L 268.88 406.407 L 242.676 416.397 L 242.912 434.869 L 270.12 424.494 L 270.266 436.079 L 226.6 452.73 L 225.738 384.475 L 269.41 367.817 L 269.551 379.408 Z" fill="#e41f28"/><path d="M 301.23 412.629 L 324.525 403.744 L 324.668 415.329 L 284.918 430.49 L 284.057 362.229 L 300.516 355.952 Z" fill="#e41f28"/><path d="M 375.227 342.684 c -3.174 -2.244 -7.233 -2.877 -12.724 -.781 c -5.265 2.003 -10.26 7.179 -10.204 11.618 c .148 11.497 33.566 -6.073 33.858 16.833 c .165 13.67 -10.237 27.367 -27.483 33.952 c -11.64 4.434 -20.222 2.25 -26.141 -3.405 l 10.529 -12.476 c 2.311 4.401 8.295 6.843 15.353 4.153 c 6.723 -2.563 10.805 -8.763 10.738 -14.011 c -.094 -7.063 -8.175 -5.979 -14.809 -5.545 c -10.908 .522 -18.907 -.88 -19.05 -11.475 c -.143 -11.315 10.16 -24.43 24.38 -29.848 c 7.504 -2.86 17.95 -3.845 23.159 -1.194 L 375.227 342.684 z" fill="#e41f28"/><path d="M 415.192 380.926 L 398.733 387.208 L 397.875 318.947 L 414.334 312.67 Z" fill="#e41f28"/><path d="M 443.412 335.235 c .132 10.32 11.046 19.353 25.04 14.011 c 13.995 -5.341 24.584 -22.565 24.452 -32.885 c -.138 -11.04 -10.584 -18.252 -25.024 -12.74 C 453.435 309.128 443.269 324.19 443.412 335.235 z M 426.397 342.271 c -.236 -19.099 16.679 -42.379 41.317 -51.775 c 24.634 -9.396 41.973 .819 42.221 19.919 c .241 19.556 -16.684 42.561 -41.318 51.957 C 443.984 371.767 426.645 361.827 426.397 342.271 z" fill="#e41f28"/><path d="M 538.122 297.02 l 2.123 -.809 c 9.071 -3.46 15.431 -8.064 15.32 -16.393 c -.109 -8.422 -6.733 -7.531 -15.469 -4.197 l -2.233 .853 L 538.122 297.02 z M 579.23 318.369 l -19.93 7.603 l -20.843 -19.705 l -.221 .082 l .347 27.516 l -16.464 6.276 l -.858 -68.256 l 22.284 -8.499 c 16.685 -6.359 28.292 -4.78 28.479 9.792 c .11 8.692 -5.716 19.649 -17.003 25.497 L 579.23 318.369 z" fill="#e41f28"/></svg>
